X: 4293
M: C|
L: 1/8
K: G
(dc) |\
[1 BdBG AcAF | AGFE DFdc :|\
[2 BdBG AcAF | G2G2G2 |:\
(Bc) |\
dcBA GBdg |
e2c2 c2(cd) |\
edcB Aaag | f2d2 d2(ef) |\
gage fgaf | efge dcBA |\


